packages/hms_room_kit/lib/src/assets/icons/exit_room.svg

<svg width="25" height="24" viewBox="0 0 25 24" fill="none" xmlns="http://www.w3.org/2000/svg">
<g id="Icon">
<g id="Vector">
<path d="M18.95 19.3C19.1755 19.3 19.3917 19.2104 19.5511 19.051C19.7105 18.8916 19.8 18.6754 19.8 18.45L19.8 6.55C19.8 6.32457 19.7105 6.10837 19.5511 5.94896C19.3917 5.78955 19.1755 5.7 18.95 5.7L15.55 5.7C15.0806 5.7 14.7 5.31944 14.7 4.85C14.7 4.38056 15.0806 4 15.55 4L18.95 4C19.6263 4 20.2749 4.26866 20.7531 4.74688C21.2314 5.2251 21.5 5.8737 21.5 6.55V18.45C21.5 19.1263 21.2314 19.7749 20.7531 20.2531C20.2749 20.7313 19.6263 21 18.95 21H15.55C15.0806 21 14.7 20.6194 14.7 20.15C14.7 19.6806 15.0806 19.3 15.55 19.3H18.95Z" fill="#FFEDEC"/>
<path d="M10.2011 17.351C9.86911 17.683 9.33092 17.683 8.99897 17.351L4.75162 13.1037C4.74262 13.0948 4.73381 13.0856 4.72521 13.0763C4.65851 13.0041 4.60662 12.9231 4.56955 12.8373C4.5248 12.7339 4.5 12.6198 4.5 12.5C4.5 12.38 4.52488 12.2657 4.56976 12.1622C4.60647 12.0773 4.65768 11.9972 4.72337 11.9257C4.7326 11.9156 4.74206 11.9058 4.75175 11.8962L8.99897 7.64895C9.33092 7.31701 9.86911 7.31701 10.2011 7.64895C10.533 7.9809 10.533 8.51909 10.2011 8.85104L7.40209 11.65L15.55 11.65C16.0194 11.65 16.4 12.0306 16.4 12.5C16.4 12.9694 16.0194 13.35 15.55 13.35H7.40209L10.2011 16.149C10.533 16.4809 10.533 17.0191 10.2011 17.351Z" fill="#FFEDEC"/>
</g>
</g>
</svg>

<svg xmlns="http://www.w3.org/2000/svg" width="25" height="24" fill="none" viewBox="0 0 25 24"><g fill="#FFEDEC"><path d="M18.95 19.3a.85.85 0 0 0 .85-.85V6.55a.85.85 0 0 0-.85-.85h-3.4a.85.85 0 0 1 0-1.7h3.4a2.55 2.55 0 0 1 2.55 2.55v11.9A2.55 2.55 0 0 1 18.95 21h-3.4a.85.85 0 0 1 0-1.7h3.4Z"/><path d="M10.201 17.351a.85.85 0 0 1-1.202 0l-4.247-4.247a.854.854 0 0 1-.182-.942.845.845 0 0 1 .182-.266L8.999 7.65a.85.85 0 0 1 1.202 1.202L7.402 11.65h8.148a.85.85 0 0 1 0 1.7H7.402l2.8 2.799a.85.85 0 0 1 0 1.202Z"/></g></svg>
